src/img/fingerprint-icon.svg

<svg width="42" height="48" viewBox="0 0 42 48" fill="none" xmlns="http://www.w3.org/2000/svg">
<path d="M6.11916e-08 26.9661C0.115526 21.2513 2.3066 16.1017 6.72789 11.9579C9.77324 9.07656 13.6503 7.21947 17.8125 6.64847C23.5594 5.81424 28.8207 7.07923 33.4906 10.5155C37.7768 13.6692 40.4163 17.9222 41.5187 23.1088C41.8809 24.8084 42.1374 26.5373 41.9201 28.2681C41.5285 31.3867 39.8112 33.597 36.927 34.8386C32.259 36.8482 26.7823 33.9518 25.7896 28.9913C25.6764 28.4207 25.6109 27.8418 25.5938 27.2604C25.5233 24.8845 23.7297 22.9334 21.4603 22.7989C18.9325 22.6469 16.8217 24.2705 16.5299 26.7205C16.3341 28.3403 16.5985 29.9561 17.0332 31.529C18.6172 37.2614 22.175 41.2454 27.732 43.4401C28.5054 43.7461 29.13 44.1476 29.2221 45.0501C29.2668 45.3572 29.2297 45.6706 29.1147 45.959C28.9997 46.2474 28.8106 46.5007 28.5665 46.6936C28.3223 46.8865 28.0316 47.0123 27.7233 47.0584C27.4151 47.1045 27.1001 47.0693 26.8097 46.9563C24.2193 46.0558 21.8369 44.6467 19.8038 42.8125C16.8677 40.2101 14.736 36.83 13.6575 33.0669C12.9702 30.687 12.5727 28.2584 12.9721 25.7772C13.5184 22.3837 16.4966 19.6686 19.9174 19.1989C24.0019 18.6356 28.1862 21.3546 29.0458 25.6797C29.1868 26.3911 29.1849 27.1279 29.2788 27.851C29.5921 30.2718 31.4582 31.8857 33.9038 31.837C35.0657 31.8105 36.1723 31.3379 36.9923 30.5181C37.8123 29.6982 38.2821 28.5945 38.3035 27.4378C38.3389 23.6551 37.1247 19.9656 34.8478 16.937C32.5708 13.9083 29.3573 11.7083 25.7015 10.6754C21.6953 9.55656 17.7243 9.7924 13.9277 11.5193C8.79756 13.8583 5.5276 17.7994 4.13738 23.2374C3.41139 26.0783 3.45192 29.0596 4.25486 31.8799C4.42717 32.4958 4.46829 33.102 4.07668 33.6516C3.89821 33.9359 3.64098 34.1628 3.33596 34.3049C3.03094 34.4471 2.69115 34.4984 2.3575 34.4527C1.98651 34.4225 1.63543 34.2731 1.35715 34.027C1.07886 33.7809 0.888437 33.4515 0.814553 33.0883C0.273654 31.0921 -0.000228804 29.0336 6.11916e-08 26.9661Z" fill="#0071BB"/>
<path d="M6.40869 27.6779C6.40869 22.1307 8.78577 17.5074 14.0294 14.5486C16.8385 12.9352 20.1345 12.3745 23.3224 12.9679C29.0008 13.9814 32.8229 17.2403 34.826 22.6063C35.3571 24.0726 35.6184 25.6222 35.5975 27.1809C35.5975 28.2158 34.9415 28.9663 33.9938 29.054C32.9658 29.1495 32.1728 28.5491 32.0044 27.4947C31.8595 26.5864 31.8576 25.6488 31.6441 24.7659C31.3195 23.2969 30.6801 21.9149 29.7697 20.7143C28.8594 19.5138 27.6994 18.5229 26.3691 17.8095C24.6559 16.8532 22.715 16.3751 20.7515 16.4256C18.3346 16.4303 15.9962 17.2802 14.145 18.8269C11.2079 21.2692 9.91753 24.4092 10.0879 28.2217C10.2647 32.1455 11.3955 35.968 13.3833 39.3609C13.5818 39.6797 13.6741 40.0528 13.647 40.4269C13.6198 40.801 13.4746 41.157 13.232 41.4441C12.9895 41.7311 12.662 41.9346 12.2964 42.0253C11.9308 42.116 11.5457 42.0895 11.1961 41.9494C10.785 41.7648 10.4382 41.4629 10.1995 41.082C8.34468 37.9115 7.13759 34.4075 6.64757 30.7711C6.53009 29.8745 6.50855 28.9624 6.40869 27.6779Z" fill="#0071BB"/>
<path d="M20.8359 7.58679e-08C25.0012 0.045923 29.1062 0.996482 32.8642 2.78529C35.3156 3.96424 37.574 5.50521 39.5627 7.35598C40.4654 8.19021 40.5594 9.29146 39.7918 10.0965C39.132 10.7884 38.1686 10.8566 37.3736 10.2309C36.7373 9.72807 36.144 9.16867 35.5076 8.67164C32.538 6.29256 29.0032 4.71446 25.2435 4.08925C17.8166 2.84377 11.1905 4.67399 5.40834 9.49807C5.0037 9.86185 4.54032 10.1551 4.0377 10.3654C3.35042 10.6208 2.55349 10.268 2.15992 9.68324C1.9402 9.36636 1.82647 8.98859 1.83491 8.60365C1.84335 8.21872 1.97352 7.84624 2.20692 7.5392C2.42662 7.2786 2.66978 7.03851 2.93335 6.82193C6.91604 3.42071 11.4764 1.23964 16.6711 0.434656C18.0456 0.218304 19.4535 0.138388 20.8359 7.58679e-08Z" fill="#0071BB"/>
<path d="M33.7335 41.822C30.6668 41.8079 27.6818 40.8369 25.1985 39.0456C22.7152 37.2544 20.8586 34.7332 19.89 31.8367C19.4254 30.436 19.1791 28.9728 19.1597 27.4979C19.1381 25.9796 20.5049 25.0732 21.8168 25.7184C22.0762 25.8389 22.2996 26.0247 22.4648 26.2575C22.63 26.4903 22.7312 26.762 22.7586 27.0457C22.8604 27.8624 22.8741 28.6986 23.0543 29.4977C23.9334 33.396 26.2341 36.0897 29.9995 37.5008C31.6357 38.1104 33.3953 38.3189 35.1296 38.109C35.3644 38.0799 35.6027 38.0977 35.8305 38.1612C36.0584 38.2247 36.2712 38.3327 36.4567 38.4789C36.6423 38.6251 36.7967 38.8066 36.9111 39.0128C37.0254 39.219 37.0974 39.4458 37.1229 39.68C37.2267 40.7871 36.5355 41.6115 35.435 41.6934L33.7335 41.822Z" fill="#0071BB"/>
</svg>

<svg xmlns="http://www.w3.org/2000/svg" fill="none" viewBox="0 0 42 48">
  <path fill="#0071BB" d="M0 26.966c.116-5.715 2.307-10.864 6.728-15.008a20.103 20.103 0 0 1 11.085-5.31c5.746-.834 11.008.431 15.678 3.867 4.286 3.154 6.925 7.407 8.028 12.594.362 1.7.618 3.428.401 5.16-.392 3.118-2.109 5.328-4.993 6.57-4.668 2.01-10.145-.887-11.137-5.848-.114-.57-.18-1.15-.196-1.73-.07-2.377-1.864-4.328-4.134-4.462-2.527-.152-4.638 1.471-4.93 3.922-.196 1.62.069 3.235.503 4.808 1.584 5.732 5.142 9.716 10.699 11.911.773.306 1.398.708 1.49 1.61a1.767 1.767 0 0 1-.655 1.644 1.786 1.786 0 0 1-1.757.262c-2.59-.9-4.973-2.31-7.006-4.144a20.613 20.613 0 0 1-6.146-9.745c-.688-2.38-1.085-4.809-.686-7.29.546-3.393 3.525-6.108 6.945-6.578 4.085-.563 8.27 2.156 9.129 6.48.14.712.139 1.449.233 2.172.313 2.42 2.18 4.035 4.625 3.986a4.514 4.514 0 0 0 3.088-1.319 4.473 4.473 0 0 0 1.312-3.08 17.205 17.205 0 0 0-3.456-10.501 17.338 17.338 0 0 0-9.146-6.262c-4.007-1.118-7.978-.883-11.774.844-5.13 2.34-8.4 6.28-9.79 11.718a16.573 16.573 0 0 0 .117 8.643c.172.616.213 1.222-.178 1.772a1.744 1.744 0 0 1-1.72.8 1.72 1.72 0 0 1-1-.425 1.708 1.708 0 0 1-.542-.939A23.398 23.398 0 0 1 0 26.966Z"/>
  <path fill="#0071BB" d="M6.409 27.678c0-5.547 2.377-10.17 7.62-13.13a13.648 13.648 0 0 1 9.293-1.58c5.679 1.013 9.5 4.272 11.504 9.638.531 1.467.792 3.016.771 4.575 0 1.035-.656 1.785-1.603 1.873-1.028.096-1.821-.505-1.99-1.56-.144-.908-.146-1.845-.36-2.728a10.43 10.43 0 0 0-1.874-4.052c-.91-1.2-2.07-2.191-3.4-2.904a10.95 10.95 0 0 0-5.619-1.384 10.336 10.336 0 0 0-6.606 2.4c-2.937 2.443-4.227 5.583-4.057 9.396a24.188 24.188 0 0 0 3.295 11.139 1.774 1.774 0 0 1-1.087 2.664c-.365.091-.75.065-1.1-.076a2.276 2.276 0 0 1-.996-.867 27.76 27.76 0 0 1-3.552-10.31c-.118-.897-.14-1.81-.24-3.094ZM20.836 0c4.165.046 8.27.996 12.028 2.785a27.025 27.025 0 0 1 6.699 4.571c.902.834.996 1.935.229 2.74-.66.692-1.623.76-2.418.135-.637-.503-1.23-1.062-1.866-1.56A22.255 22.255 0 0 0 25.243 4.09c-7.426-1.245-14.052.585-19.835 5.41a4.85 4.85 0 0 1-1.37.866c-.688.256-1.485-.097-1.878-.682a1.824 1.824 0 0 1 .047-2.144c.22-.26.463-.5.726-.717C6.916 3.42 11.476 1.24 16.671.435 18.046.218 19.453.138 20.836 0Z"/>
  <path fill="#0071BB" d="M33.733 41.822a14.706 14.706 0 0 1-8.534-2.776 14.6 14.6 0 0 1-5.309-7.21c-.465-1.4-.71-2.863-.73-4.338-.022-1.518 1.345-2.425 2.657-1.78a1.643 1.643 0 0 1 .942 1.328c.101.816.115 1.653.295 2.452.88 3.898 3.18 6.592 6.946 8.003 1.636.61 3.395.818 5.13.608a1.79 1.79 0 0 1 1.781.904c.114.206.186.433.212.667.104 1.107-.587 1.931-1.688 2.013l-1.702.129Z"/>
</svg>
